svg/access_point_plus.svg

<svg xmlns="http://www.w3.org/2000/svg" viewBox="0 0 24 24"><path d="M16 12c0-1.11-.45-2.11-1.17-2.83l1.41-1.41A5.98 5.98 0 0 1 18 12c-.72 0-1.4.13-2.04.36.01-.12.04-.24.04-.36m4 .34c.68.25 1.33.62 1.88 1.09.07-.47.12-.93.12-1.43 0-2.76-1.12-5.26-2.93-7.07l-1.41 1.41A7.96 7.96 0 0 1 20 12zM12 10c-1.1 0-2 .9-2 2s.9 2 2 2 2-.9 2-2-.9-2-2-2M6.34 6.34 4.93 4.93C3.12 6.74 2 9.24 2 12s1.12 5.26 2.93 7.07l1.41-1.41A7.94 7.94 0 0 1 4 12c0-2.21.89-4.22 2.34-5.66m1.42 1.42C6.67 8.85 6 10.35 6 12s.67 3.15 1.76 4.24l1.41-1.41C8.45 14.11 8 13.11 8 12s.45-2.11 1.17-2.83zM19 14h-2v3h-3v2h3v3h2v-3h3v-2h-3z"/></svg>

<?xml version="1.0" encoding="UTF-8"?><!DOCTYPE svg PUBLIC "-//W3C//DTD SVG 1.1//EN" "http://www.w3.org/Graphics/SVG/1.1/DTD/svg11.dtd"><svg xmlns="http://www.w3.org/2000/svg" xmlns:xlink="http://www.w3.org/1999/xlink" version="1.1" id="mdi-access-point-plus" width="24" height="24" viewBox="0 0 24 24"><path d="M16 12C16 10.89 15.55 9.89 14.83 9.17L16.24 7.76C17.33 8.85 18 10.35 18 12C17.28 12 16.6 12.13 15.96 12.36C15.97 12.24 16 12.12 16 12M20 12.34C20.68 12.59 21.33 12.96 21.88 13.43C21.95 12.96 22 12.5 22 12C22 9.24 20.88 6.74 19.07 4.93L17.66 6.34C19.11 7.78 20 9.79 20 12C20 12.12 20 12.23 20 12.34M12 10C10.9 10 10 10.9 10 12S10.9 14 12 14 14 13.1 14 12 13.1 10 12 10M6.34 6.34L4.93 4.93C3.12 6.74 2 9.24 2 12S3.12 17.26 4.93 19.07L6.34 17.66C4.89 16.22 4 14.22 4 12C4 9.79 4.89 7.78 6.34 6.34M7.76 7.76C6.67 8.85 6 10.35 6 12S6.67 15.15 7.76 16.24L9.17 14.83C8.45 14.11 8 13.11 8 12S8.45 9.89 9.17 9.17L7.76 7.76M19 14H17V17H14V19H17V22H19V19H22V17H19V14Z" /></svg>
